src/img/calc/fullred.svg

<svg width="60" height="51" viewBox="0 0 60 51" fill="none" xmlns="http://www.w3.org/2000/svg">
<g clip-path="url(#clip0)">
<path d="M16.6225 2.05564C16.6225 2.05564 9.27152 -6.30067 4.63576 10.6109C0.662252 25.5329 0 34.7513 0 34.7513C0 34.7513 4.17219 14.7227 5.76159 10.2793C7.28477 5.90219 9.93377 -0.928757 16.6225 2.05564Z" fill="#D77C69"/>
<path d="M17.4834 3.64746C17.4834 3.64746 20.7285 11.1416 23.6424 21.2222C26.5563 31.3029 27.6821 34.7515 29.0066 38.7307C30.7947 44.2352 30.6623 47.8828 30.6623 47.8828C30.6623 47.8828 29.6027 43.1078 28.4768 39.9244C26.9536 35.7463 24.1722 26.0636 22.7815 21.8191C20.7947 15.784 17.4834 3.64746 17.4834 3.64746Z" fill="#D77C69"/>
<path d="M14.0397 7.29492C14.0397 7.29492 8.80796 15.5849 14.9669 22.8138C20.1987 28.9815 22.9139 31.568 21.3245 36.4757C21.3245 36.4757 22.8477 33.8229 21.7881 30.9711C20.6623 28.1194 14.9007 21.1558 13.9073 17.2429C12.4503 11.871 14.0397 7.29492 14.0397 7.29492Z" fill="#D77C69"/>
<path d="M20.9271 37.0063C20.9271 37.0063 17.4834 40.9192 20.0662 42.9088C22.4503 44.6995 25.7616 43.0415 26.8874 46.1585C28.0132 49.2755 28.6093 51.1988 32.3179 50.9998C36.4238 50.8009 34.702 49.0102 33.4437 48.546C33.4437 48.546 34.9007 49.4082 34.1722 50.1377C33.5761 50.7346 30.9271 51.1325 29.3377 49.8061C27.4172 48.2807 27.8808 45.23 25.894 44.1026C24.3709 43.2404 21.1258 43.3731 20.2649 41.2508C19.404 39.1949 20.9271 37.0063 20.9271 37.0063Z" fill="#D77C69"/>
<path d="M22.053 9.55012C22.053 9.55012 27.0199 4.64245 31.9205 13.264C36.8874 21.8856 45.6291 35.017 49.6689 38.7309C53.7086 42.4448 56.0265 47.6177 56.0265 47.6177C56.0265 47.6177 51.8543 41.3174 49.3377 39.5267C46.8212 37.7361 41.4569 29.7114 38.4106 25.1353C35.298 20.5592 30.7285 10.6112 27.4172 9.28484C24.106 8.02477 22.053 9.55012 22.053 9.55012Z" fill="#D77C69"/>
<path d="M26.4901 17.8398C26.4901 17.8398 24.3046 25.9309 32.5166 29.9764C40.9934 34.1545 42.4503 39.7917 42.4503 39.7917C42.4503 39.7917 41.9205 34.3535 35.0331 30.3743C28.0795 26.2625 26.6887 21.9517 26.4901 17.8398Z" fill="#D77C69"/>
<path d="M43.7086 39.7256C43.7086 39.7256 42.1192 40.9857 41.9868 43.1079C41.8543 44.9649 42.8477 46.0923 45.8278 46.3576C48.808 46.5565 50.1987 46.8218 51.457 48.2145C52.7152 49.6072 53.9073 50.2704 56.2252 50.4031C58.5431 50.5357 60.3311 50.4031 60 49.2757C59.8013 48.6125 58.0133 48.3472 58.0133 48.3472C58.0133 48.3472 59.6689 49.0104 59.6689 49.4746C59.6027 50.0052 57.947 50.2041 56.4901 50.1378C54.9669 50.0052 52.9801 49.4083 51.7219 47.8166C50.4636 46.2249 48.9404 45.9597 47.0199 45.827C45.1656 45.6944 42.9801 45.2965 42.7152 43.0416C42.3841 41.2509 43.7086 39.7256 43.7086 39.7256Z" fill="#D77C69"/>
<path d="M12.7152 19.1001C12.7152 19.1001 19.8676 46.6229 5.29802 49.9389C5.29802 49.9389 14.6358 50.2705 15.5629 36.3433C16.2252 26.3953 14.9007 21.7529 14.9007 21.7529L12.7152 19.1001Z" fill="#D77C69"/>
</g>
<defs>
<clipPath id="clip0">
<rect width="60" height="51" fill="white"/>
</clipPath>
</defs>
</svg>

<svg width="60" height="51" fill="none" xmlns="http://www.w3.org/2000/svg"><g clip-path="url(#clip0)" fill="#D77C69"><path d="M16.622 2.056S9.272-6.301 4.636 10.61C.662 25.533 0 34.75 0 34.75S4.172 14.723 5.762 10.28C7.285 5.902 9.934-.929 16.622 2.056zM17.483 3.647s3.245 7.495 6.16 17.575c2.913 10.08 4.04 13.53 5.364 17.509 1.788 5.504 1.655 9.152 1.655 9.152s-1.06-4.775-2.185-7.959c-1.523-4.178-4.305-13.86-5.695-18.105-1.987-6.035-5.299-18.172-5.299-18.172z"/><path d="M14.04 7.295s-5.232 8.29.927 15.519c5.232 6.168 7.947 8.754 6.357 13.662 0 0 1.524-2.653.464-5.505-1.126-2.852-6.887-9.815-7.88-13.728-1.458-5.372.132-9.948.132-9.948zM20.927 37.006s-3.444 3.913-.86 5.903c2.383 1.79 5.695.133 6.82 3.25 1.126 3.117 1.722 5.04 5.43 4.84 4.107-.198 2.385-1.989 1.127-2.453 0 0 1.457.862.728 1.592-.596.597-3.245.995-4.834-.332-1.92-1.525-1.457-4.576-3.444-5.703-1.523-.863-4.768-.73-5.63-2.852-.86-2.056.663-4.245.663-4.245zM22.053 9.55s4.967-4.908 9.867 3.714c4.967 8.622 13.71 21.753 17.749 25.467 4.04 3.714 6.358 8.887 6.358 8.887s-4.173-6.3-6.69-8.091c-2.516-1.79-7.88-9.816-10.926-14.392-3.113-4.576-7.683-14.524-10.994-15.85-3.311-1.26-5.364.265-5.364.265zM26.49 17.84s-2.185 8.09 6.027 12.136c8.476 4.178 9.933 9.816 9.933 9.816s-.53-5.439-7.417-9.418c-6.954-4.111-8.344-8.422-8.543-12.534z"/><path d="M43.709 39.726s-1.59 1.26-1.722 3.382c-.133 1.857.86 2.984 3.84 3.25 2.981.199 4.372.464 5.63 1.857 1.258 1.392 2.45 2.055 4.768 2.188 2.318.133 4.106 0 3.775-1.127-.199-.664-1.987-.929-1.987-.929s1.656.663 1.656 1.128c-.066.53-1.722.73-3.179.663-1.523-.133-3.51-.73-4.768-2.321-1.258-1.592-2.782-1.857-4.702-1.99-1.854-.133-4.04-.53-4.305-2.785-.33-1.791.994-3.316.994-3.316zM12.715 19.1s7.153 27.523-7.417 30.839c0 0 9.338.331 10.265-13.596.662-9.948-.662-14.59-.662-14.59L12.715 19.1z"/></g><defs><clipPath id="clip0"><path fill="#fff" d="M0 0h60v51H0z"/></clipPath></defs></svg>
